icons/2_Variations/Uber bg.var.svg

<svg width="1024" height="1024" viewBox="0 0 1024 1024" fill="none" xmlns="http://www.w3.org/2000/svg">
<g clip-path="url(#clip0_3_296)">
<path d="M512 1024C794.77 1024 1024 794.77 1024 512C1024 229.23 794.77 0 512 0C229.23 0 0 229.23 0 512C0 794.77 229.23 1024 512 1024Z" fill="#728DBE"/>
<path d="M303.95 584.779C330.89 584.779 351.72 563.939 351.72 533.109V413.109H380.88V607.559H352V589.499C338.95 603.109 320.89 610.889 300.61 610.889C258.94 610.889 227 580.609 227 534.799V413.139H256.16V533.139C256.16 564.529 276.71 584.809 303.94 584.809M402.52 607.579H430.31V589.779C436.91 596.487 444.782 601.81 453.466 605.435C462.15 609.06 471.47 610.914 480.88 610.889C522.55 610.889 555.32 577.839 555.32 537.009C555.361 527.235 553.462 517.549 549.732 508.514C546.003 499.479 540.517 491.274 533.593 484.375C526.668 477.476 518.444 472.02 509.395 468.323C500.347 464.627 490.654 462.763 480.88 462.839C471.515 462.816 462.24 464.673 453.605 468.299C444.97 471.925 437.151 477.247 430.61 483.949V413.119H402.55L402.52 607.579ZM478.95 586.199C469.203 586.312 459.642 583.526 451.482 578.193C443.322 572.861 436.931 565.223 433.121 556.251C429.311 547.279 428.254 537.376 430.084 527.802C431.914 518.228 436.549 509.413 443.399 502.478C450.249 495.543 459.006 490.801 468.557 488.854C478.109 486.907 488.023 487.842 497.042 491.542C506.06 495.241 513.775 501.538 519.208 509.632C524.64 517.726 527.543 527.252 527.55 536.999C527.55 564.219 505.61 586.169 478.94 586.169M639.22 463.109C597.83 463.109 566.44 496.719 566.44 536.719C566.44 578.939 599.22 610.599 641.71 610.599C667.54 610.599 688.65 599.209 702.82 580.319L682.54 565.319C671.99 579.489 658.11 586.159 641.71 586.159C617.84 586.159 598.71 568.939 594.78 545.879H710V536.709C710 494.489 680 463.099 639.17 463.099M595.28 523.659C600.28 501.989 617.78 487.549 638.61 487.549C659.44 487.549 677 501.999 681.72 523.669H595.33M797 490.909V464.789H787.28C771.72 464.789 760.33 472.009 753.39 483.399V465.889H725.6V607.559H753.66V526.999C753.66 505.059 766.99 490.889 785.33 490.889L797 490.909Z" fill="white"/>
</g>
<defs>
<clipPath id="clip0_3_296">
<rect width="1024" height="1024" fill="white"/>
</clipPath>
</defs>
</svg>

<svg xmlns="http://www.w3.org/2000/svg" width="1024" height="1024" fill="none">
   <g clip-path="url(#a)">
      <path fill="#728DBE" d="M512 1024c282.77 0 512-229.23 512-512S794.77 0 512 0 0 229.23 0 512s229.23 512 512 512Z"/>
      <path fill="#fff" d="M303.95 584.779c26.94 0 47.77-20.84 47.77-51.67v-120h29.16v194.45H352v-18.06c-13.05 13.61-31.11 21.39-51.39 21.39-41.67 0-73.61-30.28-73.61-76.09v-121.66h29.16v120c0 31.39 20.55 51.67 47.78 51.67m98.58 22.77h27.79v-17.8a70.684 70.684 0 0 0 50.57 21.11c41.67 0 74.44-33.05 74.44-73.88a73.862 73.862 0 0 0-74.44-74.17 70.005 70.005 0 0 0-50.27 21.11v-70.83h-28.06l-.03 194.46Zm76.43-21.38a49.166 49.166 0 0 1-45.829-29.948 49.169 49.169 0 0 1 63.921-64.709 49.172 49.172 0 0 1 30.508 45.457c0 27.22-21.94 49.17-48.61 49.17m160.28-123.06c-41.39 0-72.78 33.61-72.78 73.61 0 42.22 32.78 73.88 75.27 73.88 25.83 0 46.94-11.39 61.11-30.28l-20.28-15c-10.55 14.17-24.43 20.84-40.83 20.84-23.87 0-43-17.22-46.93-40.28H710v-9.17c0-42.22-30-73.61-70.83-73.61m-43.89 60.56c5-21.67 22.5-36.11 43.33-36.11s38.39 14.45 43.11 36.12h-86.39M797 490.909v-26.12h-9.72c-15.56 0-26.95 7.22-33.89 18.61v-17.51H725.6v141.67h28.06v-80.56c0-21.94 13.33-36.11 31.67-36.11l11.67.02Z"/>
   </g>
   <defs>
      <clipPath id="a">
         <path fill="#fff" d="M0 0h1024v1024H0z"/>
      </clipPath>
   </defs>
</svg>
